X: 26380
T: Merry Blacksmith, The
R: reel
M: 4/4
K: Dmajor
A4|:"D"d2dA BAFA|BcdA BAFA|"G"Bcde "D"fedA|"G"Be2d "A"egfe|
"D"d2dA BAFA|BcdA BAFA|"G"Bcde "D"fafe|"A"dBFE "D"D4:|
|:"D"a2ag fgfe|d2dA BAFA|"G"Bcde "D"fedA|"G"Be2d "A"egfe|
"D(Bm on repeat)"a2ag fgfe|d2dA BAFA|"G"Bcde "D"fafe|"A"dBFE "D"D4:|

